assets/icons/qvision/report_off.svg

<svg width="24" height="24" viewBox="0 0 24 24" fill="none" xmlns="http://www.w3.org/2000/svg">
<g clip-path="url(#clip0_147_2246)">
<path d="M11 6.99997H13V9.91997L19.91 16.83L21 15.73V8.26997L15.73 2.99997H8.27L7.18 4.09997L11 7.91997V6.99997ZM22.27 21.73L2.27 1.71997L1 2.98997L4.64 6.62997L3 8.26997V15.73L8.27 21H15.73L17.37 19.37L21 23L22.27 21.73ZM12 17.3C11.28 17.3 10.7 16.72 10.7 16C10.7 15.28 11.28 14.7 12 14.7C12.72 14.7 13.3 15.28 13.3 16C13.3 16.72 12.72 17.3 12 17.3Z" fill="#323232"/>
</g>
<defs>
<clipPath id="clip0_147_2246">
<rect width="24" height="24" fill="white"/>
</clipPath>
</defs>
</svg>

<svg xmlns="http://www.w3.org/2000/svg" height="24" viewBox="0 0 24 24" width="24"><path d="M0 0h24v24H0z" fill="none"/><path d="M11 7h2v2.92l6.91 6.91 1.09-1.1V8.27L15.73 3H8.27L7.18 4.1 11 7.92zm11.27 14.73l-20-20.01L1 2.99l3.64 3.64L3 8.27v7.46L8.27 21h7.46l1.64-1.63L21 23l1.27-1.27zM12 17.3c-.72 0-1.3-.58-1.3-1.3s.58-1.3 1.3-1.3 1.3.58 1.3 1.3-.58 1.3-1.3 1.3z"/></svg>
